X:570
T:O'Keefe's
M:6/8
L:1/8
K:Am
A|: A2 e e2 d|BA B d2 B|A2 e e2 (d|B2) G GFG|\
A2 e e2 (d|B)A B (d2 d)|BA B d2 e|1 B2 A A3 :|2 B2 A A2 d||
e2 a a2 b|a2 g e2 d|e2 a a2 b|(ag e) e2 (e|g2) a g2 e|\
dB A G3|BG B d2 (e|1 B2) A A2 d :|2 B2 A A2 A |>|
